public/images/pages/filters/hue.svg

<svg fill="none" height="22" viewBox="0 0 22 22" width="22" xmlns="http://www.w3.org/2000/svg" xmlns:xlink="http://www.w3.org/1999/xlink"><clipPath id="a"><path d="m0 0h11v22h-11z"/></clipPath><path clip-rule="evenodd" d="m11 0c-6.0752 0-11 4.92487-11 11 0 6.0751 4.9248 11 11 11s11-4.9249 11-11c0-6.07513-4.9248-11-11-11zm0 2c-4.97046 0-9 4.02942-9 9 0 4.9706 4.02954 9 9 9 4.9705 0 9-4.0294 9-9 0-4.97058-4.0295-9-9-9z" fill="#b4b4b4" fill-rule="evenodd"/><g clip-path="url(#a)"><rect fill="#b4b4b4" height="22" rx="11" width="22"/></g></svg>

<svg width="22" height="22" viewBox="0 0 22 22" fill="none" xmlns="http://www.w3.org/2000/svg">
<path fill-rule="evenodd" clip-rule="evenodd" d="M11 0C4.9248 0 0 4.92487 0 11C0 17.0751 4.9248 22 11 22C17.0752 22 22 17.0751 22 11C22 4.92487 17.0752 0 11 0ZM11 2C6.02954 2 2 6.02942 2 11C2 15.9706 6.02954 20 11 20C15.9705 20 20 15.9706 20 11C20 6.02942 15.9705 2 11 2Z" fill="#B4B4B4"/>
<g clip-path="url(#clip0)">
<rect width="22" height="22" rx="11" fill="#B4B4B4"/>
</g>
<defs>
<clipPath id="clip0">
<rect width="11" height="22" fill="white"/>
</clipPath>
</defs>
</svg>
